Papirus/16x16/apps/hashit.svg

<svg viewBox="0 0 16 16" width="16" xmlns="http://www.w3.org/2000/svg" version="1.1" height="16">
 <path style="fill:#6ea23d" d="m7.5 1a7.5 7.5 0 0 0 -7.5 7.5 7.5 7.5 0 0 0 7.5 7.5 7.5 7.5 0 0 0 7.5 -7.5 7.5 7.5 0 0 0 -7.5 -7.5z"/>
 <path style="fill:#ffffff" d="m3.6914062 6-0.3671874 1h9.1757812l0.25-1z"/>
 <path style="fill:#ffffff" d="m2.7695312 10-0.3691406 1h9.0996094l0.25-1z"/>
 <path style="fill:#ffffff" d="m6.25 4-2.25 9h1l2.25-9z"/>
 <path style="fill:#ffffff" d="m10.25 4-2.25 9h1l2.25-9z"/>
</svg>

<svg xmlns="http://www.w3.org/2000/svg" width="16" height="16" version="1.1" viewBox="0 0 16 16">
 <path style="fill:#6ea23d" d="M 7.5,1 A 7.5,7.5 0 0 0 0,8.5 7.5,7.5 0 0 0 7.5,16 7.5,7.5 0 0 0 15,8.5 7.5,7.5 0 0 0 7.5,1 Z"/>
 <path style="fill:#ffffff" d="M 3.6914062,6 3.3242188,7 H 12.5 l 0.25,-1 z"/>
 <path style="fill:#ffffff" d="M 2.7695312,10 2.4003906,11 H 11.5 l 0.25,-1 z"/>
 <path style="fill:#ffffff" d="M 6.25,4 4,13 H 5 L 7.25,4 Z"/>
 <path style="fill:#ffffff" d="M 10.25,4 8,13 h 1 l 2.25,-9 z"/>
</svg>
